src/icons/repo.svg

<svg width="16" height="16" viewBox="0 0 16 16" fill="none" xmlns="http://www.w3.org/2000/svg">
<path fill-rule="evenodd" clip-rule="evenodd" d="M14.0001 10V1.5L13.5001 1H3.74009C3.51074 1.00254 3.28375 1.04658 3.07009 1.13C2.85473 1.22571 2.66064 1.36346 2.49922 1.53518C2.33781 1.7069 2.21231 1.90913 2.13009 2.13C2.0483 2.3267 2.0042 2.53701 2.00009 2.75V12.25C1.99769 12.4798 2.04191 12.7078 2.13009 12.92C2.30724 13.3473 2.64465 13.6883 3.07009 13.87C3.28375 13.9534 3.51074 13.9975 3.74009 14H4.00009V13H3.74009C3.64031 13.0003 3.54156 12.9799 3.45009 12.94C3.26905 12.8649 3.12519 12.721 3.05009 12.54C3.01814 12.4466 3.00126 12.3487 3.00009 12.25V11.75C3.00126 11.6513 3.01814 11.5534 3.05009 11.46C3.12519 11.279 3.26905 11.1351 3.45009 11.06C3.54019 11.0207 3.63735 11.0003 3.73561 11H3.74009H4.00009H13.0001V13H9.00009V14H13.5001L14.0001 13.5V11V10ZM4.00009 10V2H13.0001V10H4.00009ZM5.00009 3H6.00009V4H5.00009V3ZM5.00009 5H6.00009V6H5.00009V5ZM6.00009 7H5.00009V8H6.00009V7ZM6.50009 13.49L5.28009 15H5.00009V12H8.00009V15H7.72009L6.50009 13.49Z" fill="white"/>
</svg>

<svg width="16" height="16" xmlns="http://www.w3.org/2000/svg"><path fill-rule="evenodd" clip-rule="evenodd" d="M14 10V1.5l-.5-.5H3.74a1.9 1.9 0 0 0-.67.13 1.77 1.77 0 0 0-.94 1 1.7 1.7 0 0 0-.13.62v9.5a1.7 1.7 0 0 0 .13.67c.177.427.515.768.94.95a1.9 1.9 0 0 0 .67.13H4v-1h-.26a.72.72 0 0 1-.29-.06.74.74 0 0 1-.4-.4.93.93 0 0 1-.05-.29v-.5a.93.93 0 0 1 .05-.29.74.74 0 0 1 .4-.4.72.72 0 0 1 .286-.06H13v2H9v1h4.5l.5-.5V10zM4 10V2h9v8H4zm1-7h1v1H5V3zm0 2h1v1H5V5zm1 2H5v1h1V7zm.5 6.49L5.28 15H5v-3h3v3h-.28L6.5 13.49z"/></svg>
